X: 12231
T: Fair Wind, The
R: reel
M: 4/4
K: Gmajor
~G3F ~G3A|BAGA BAAB|~G3E ~G3A|1 BAGE EDDE:|2 BAGE EDDc||
BcdB ~G3A|BcdB cAAc|BcdB ~G3A|1 BAGE EDDc:|2 BAGE EDDE||
GE~E2 ~c3A|BAGA BAAB|GE~E2 ~c3A|1 BAGE EDDA:|2 BAGE EDDE||

